app/src/main/assets/symbols/power/wind.svg

<?xml version="1.0" encoding="UTF-8" standalone="no"?>
<svg
   xmlns:dc="http://purl.org/dc/elements/1.1/"
   xmlns:cc="http://creativecommons.org/ns#"
   xmlns:rdf="http://www.w3.org/1999/02/22-rdf-syntax-ns#"
   xmlns:svg="http://www.w3.org/2000/svg"
   xmlns="http://www.w3.org/2000/svg"
   version="1.1"
   width="16"
   height="16"
   viewBox="0 0 16 16"
   id="svg2">
  <metadata id="metadata8">
    <rdf:RDF>
      <cc:Work rdf:about="">
        <dc:format>image/svg+xml</dc:format>
        <dc:type rdf:resource="http://purl.org/dc/dcmitype/StillImage"/>
        <dc:title/>
      </cc:Work>
    </rdf:RDF>
  </metadata>
  <defs id="defs6"/>
  <rect width="16" height="16" x="0" y="0" id="canvas" style="fill:none;stroke:none;visibility:hidden"/>
  <path d="M 11.718618,0.5 C 11.008344,0.3993314 9.205629,1.5161034 7.0310681,3.59375 7.7530968,3.631868 8.4707885,4.3689488 8.4060828,5.03125 10.551397,2.9815468 11.795687,1.2473073 11.718618,0.5 z M 1.9372637,3.25 C 1.3277462,3.271754 0.8743713,3.3532481 0.656,3.53125 0.9617833,4.1801816 2.8506744,5.0730322 5.7810548,5.75 5.4165559,5.1255886 5.6607075,4.1220091 6.2498098,3.8125 4.4429545,3.3950856 2.9531265,3.2137427 1.9372637,3.25 z M 6.9998178,4.5 c -0.276145,0 -0.5000054,0.2238576 -0.5000054,0.5 0,0.2761424 0.2238604,0.5 0.5000054,0.5 0.2761449,0 0.5000053,-0.2238576 0.5000053,-0.5 0,-0.2761424 -0.2238604,-0.5 -0.5000053,-0.5 z m 1.312514,1.03125 C 8.1103776,6.1653203 7.1470174,6.5624501 6.4685621,6.3125 7.6465487,9.079739 8.8700018,10.780912 9.562345,10.96875 9.928113,10.312531 9.474474,8.261269 8.3123318,5.53125 z M 6.4060614,7.75 5.9998071,13 l -2.0000214,0 0,1 6.0000643,0 0,-1 -2.0000215,0 -0.2187524,-2.78125 C 7.3325413,9.489844 6.8783275,8.672219 6.4060614,7.75 z" id="power-wind" style="fill:#555555;fill-opacity:1" transform="translate(1,1)"/>
</svg>

<?xml version="1.0" encoding="UTF-8"?>
<svg version="1.1" viewBox="0 0 16 16" xmlns="http://www.w3.org/2000/svg" xmlns:cc="http://creativecommons.org/ns#" xmlns:dc="http://purl.org/dc/elements/1.1/" xmlns:rdf="http://www.w3.org/1999/02/22-rdf-syntax-ns#">
<metadata>
<rdf:RDF>
<cc:Work rdf:about="">
<dc:format>image/svg+xml</dc:format>
<dc:type rdf:resource="http://purl.org/dc/dcmitype/StillImage"/>
<dc:title/>
</cc:Work>
</rdf:RDF>
</metadata>
<rect width="16" height="16" fill="none" visibility="hidden"/>
<path transform="translate(1,1)" d="m11.719 0.5c-0.71027-0.10067-2.513 1.0161-4.6875 3.0938 0.72203 0.038118 1.4397 0.7752 1.375 1.4375 2.1453-2.0497 3.3896-3.7839 3.3125-4.5312zm-9.7814 2.75c-0.60952 0.021754-1.0629 0.10325-1.2813 0.28125 0.30578 0.64893 2.1947 1.5418 5.1251 2.2188-0.3645-0.62441-0.12035-1.628 0.46876-1.9375-1.8069-0.41741-3.2967-0.59876-4.3125-0.5625zm5.0626 1.25c-0.27614 0-0.50001 0.22386-0.50001 0.5s0.22386 0.5 0.50001 0.5c0.27614 0 0.50001-0.22386 0.50001-0.5s-0.22386-0.5-0.50001-0.5zm1.3125 1.0312c-0.20195 0.63407-1.1653 1.0312-1.8438 0.78125 1.178 2.7672 2.4014 4.4684 3.0938 4.6562 0.36577-0.65622-0.087871-2.7075-1.25-5.4375zm-1.9063 2.2188-0.40625 5.25h-2v1h6.0001v-1h-2l-0.21875-2.7812c-0.44853-0.72891-0.90275-1.5465-1.375-2.4688z" fill="#555"/>
</svg>
